X: 1
T: LES PLAISIRS DE L'ARQUEBUSE
T: Contredanse Allemande
C: Mr Dusuel, Mtre de Danse (Paris 1762)
N: Mr Bouin Md de Musique et Crdes d'Instruments R\"ue.
N: St honore au Cagne Patit pr\'es St Roch
N: Melle Castagnery R\"ue des Prouvaires a la Musique Royalle
B: La Cuisse's 1762 bound colection, "Le R\'pertoire des bals".
S: http://memory.loc.gov/ammem/dihtml/diessay5.html
R: reel
Z: 2006 John Chambers <jc:trillian.mit.edu>
N: Note values at phrase ends adjusted by JC
M: 2/4
L: 1/16
P: 2 fois chaque rep.
K: Bb
F2 | B3e d2c2 | B3c B2g2 | f2e2""d2c2 | (dc)(de) d2F2 | B3e d2c2 | B3c B2g2 | f2e2""d2c2 | [B6D6] |]
z2 | F4 G2A2 | B2g2f2g2 | f2e2""d2c2 | (dc)(de) d2d2 | F4 (G2A2) | B2g2f2g2 | f2e2""d2c2 | [B4D4] [B2D2] |] 
f2 | (=ef)(ge) c2f2 | (=ef)(ge) c2d2 | c2B2TA2G2 | (F=E)FG F2f2 | (=ef)(ge) c2f2 | (=ef)(ge) c2d2 | c2B2TA2G2 | F6 |]
z2 | B4 (c2d2) | {d}c4 (c2e2) | d2c2""B2A2 | BABc B2F2 | B4 B2d2 | {d}c4 c2e2 | d2c2""B2A2 | [B4D4] [B2D2] |]
z2 |(f4 d2).g2 | (f4 e2).g2 | f2e2""d2c2 | dcde d2F2 | (f4 d2).f2 | (f4 e2).g2 | f2e2""d2c2 | [B4D4] [B2D2] |]
